X:1
T:Partition sans titre
C:Compositeur / Arrangeur
L:1/8
M:4/4
I:linebreak $
K:D
V:1 treble nm="Violon" snm="Vln."
V:1
"D" ABAG F2 A2 | f4 d4 | ABAG F2 A2 | f4 d4 |"A" e3 f g2 ec |"D" d2 de fafd |"A" c2 c2 egec |1 %7
"D" d2 f2 d4 :|2"D" d2 f2 d2 df |:"A" a2 g2 e2 ce |"G" g2 f2 d4 | f2 e2"A" B2 c2 |"D" dcde f2 df | %13
"A" a2 g2 e2 ce |"G" g2 f2 d3 c | B2 g2"A" e2 c2 |1"D" d2 f2 d2 df :|2"D" d3 d d4 |] %18
